X: 25456
T: Marche Des Cabrettaires
R: polka
M: 2/4
K: Cmajor
z G cd|:e>e ee|ef ed|c4|z G cd|
e2 c2|B2 c2|d4|z d de|
f>f ff|fg fe|d4|z d ef|
g3 a|gf ed|1 e3 d|cG cd:|2 c>d ed|c3 g||
|:eg eg|e3 g|ag fe|f d2 f|
df df|d3 g|gf ed|1 e c2 g:|2 cG cd||

